X: 8
T: The Lilting Fisherman
R: reel
M: 4/4
L: 1/8
K: Dmaj
|:A3F ABde | fedc dB B2 | AF F2 ABde | fedc d3B |
A3F ABde | fedc dB B2 | AF F2 ABde | fedc d3e ||
|:fa a2 bafb | afef dB B2 | fa a2 fb b2 | abc'a b3a |
fa a2 bafb | afef dB B2 | AF F2 ABde | fedc d3B ||


Tune 345	Setting 25459

